packages/core/src/svgs/ygg.svg

<svg width="24" height="24" viewBox="0 0 24 24" fill="none" xmlns="http://www.w3.org/2000/svg">
<g clip-path="url(#clip0_31_21135)">
<path d="M0 0H24V24H0V0Z" fill="url(#paint0_linear_31_21135)"/>
<path d="M16.8643 8.38298L12.2186 6.19727L7.28147 8.38298L6.9729 8.93155L7.17861 10.8601L7.70576 13.8773L9.32147 16.6073L12.0129 18.4073L14.0915 17.1087L15.8786 14.6744L16.8643 11.1773V8.38298Z" fill="url(#paint1_linear_31_21135)"/>
<path d="M12.2614 11.0701L10.7614 7.98438H7.83423C8.67851 9.39866 10.3714 12.2401 10.3842 12.2487C10.3971 12.2615 10.3885 14.2201 10.3842 15.1929L10.0842 15.8572H13.4614L12.8571 15.0215V12.4415L15.0428 8.05295H12.7799L13.1871 8.97866L12.2614 11.0701Z" fill="url(#paint2_linear_31_21135)"/>
<path fill-rule="evenodd" clip-rule="evenodd" d="M11.9743 20.1428C5.89288 17.8199 5.30574 10.5856 5.64859 7.28564L12.0386 4.28564L18.3814 7.28564C18.8957 15.5871 14.8457 19.2428 11.9743 20.1428ZM11.9743 19.3542C6.50145 17.2628 5.97431 10.7485 6.27859 7.7785L12.0343 5.0785L17.7472 7.7785C18.21 15.2528 14.5629 18.5399 11.9743 19.3499V19.3542ZM6.80145 8.12993C6.52288 10.8642 7.00288 16.8642 11.9786 18.7885C14.3314 18.0385 17.6443 15.0128 17.2243 8.12993L12.0343 5.64422L6.80574 8.12993H6.80145ZM7.46145 8.63993C7.30716 10.1656 7.41859 12.8571 8.65288 15.0428L9.33859 14.4171L9.85288 15.5914L10.2857 15.0899V12.4285C9.89145 11.7128 9.18859 10.5171 8.71288 9.71564C8.54984 9.4417 8.38983 9.16597 8.23288 8.8885C8.12002 8.72961 7.98754 8.58562 7.83859 8.45993L7.46145 8.63993ZM11.9786 17.9699C11.3218 17.7156 10.712 17.3535 10.1743 16.8985V16.4914L10.3886 16.7142H14.04C13.3543 17.3571 12.6257 17.7599 11.9829 17.9699H11.9786ZM16.56 8.63993C16.7357 11.5242 16.1657 13.6328 15.2957 15.1242L14.4686 14.9614L14.0143 16.0585L13.7143 15.6299V12.9214L15.7714 8.7385L15.36 8.06136L16.56 8.63993ZM12.03 6.4585L12.18 6.53136L12 6.4885L11.9357 6.50564L12.03 6.46279V6.4585ZM14.6357 7.71422L12.75 6.80993L12 7.36707C11.8372 7.20422 11.49 6.95564 11.28 6.8185L9.39859 7.71422H11.0314L11.8457 8.48564L12.42 9.74136C12.57 9.47564 12.8057 8.98279 12.8272 8.78136C12.8443 8.62279 12.5614 8.33993 12.3343 8.14707C12.292 8.1131 12.262 8.06623 12.2489 8.01361C12.2357 7.96099 12.2401 7.90552 12.2614 7.85564C12.3043 7.76993 12.39 7.71422 12.48 7.71422H14.6357ZM8.04002 8.14279H10.8514L11.58 8.71707L12.4672 10.6114L13.2129 9.03422C13.2557 8.80279 13.26 8.32707 12.9557 8.14279H15.0086L15.4457 8.71707L13.2857 12.8742V15.7885L13.68 16.2856H10.5257L10.1572 15.9471L10.7143 15.3214V12.3214L8.71288 8.83707C8.56295 8.54365 8.3286 8.30184 8.04002 8.14279Z" fill="url(#paint3_linear_31_21135)"/>
<path d="M12 6.93022C12.2438 6.93022 12.4415 6.73259 12.4415 6.48879C12.4415 6.245 12.2438 6.04736 12 6.04736C11.7562 6.04736 11.5586 6.245 11.5586 6.48879C11.5586 6.73259 11.7562 6.93022 12 6.93022Z" fill="#9DE6E0"/>
<path d="M14.6614 16.4014C14.9052 16.4014 15.1028 16.2038 15.1028 15.96C15.1028 15.7162 14.9052 15.5186 14.6614 15.5186C14.4176 15.5186 14.22 15.7162 14.22 15.96C14.22 16.2038 14.4176 16.4014 14.6614 16.4014Z" fill="#9DE6E0"/>
<path d="M9.33865 16.4014C9.58244 16.4014 9.78007 16.2038 9.78007 15.96C9.78007 15.7162 9.58244 15.5186 9.33865 15.5186C9.09485 15.5186 8.89722 15.7162 8.89722 15.96C8.89722 16.2038 9.09485 16.4014 9.33865 16.4014Z" fill="#9DE6E0"/>
</g>
<defs>
<linearGradient id="paint0_linear_31_21135" x1="4.46571" y1="4.16143" x2="29.2071" y2="32.58" gradientUnits="userSpaceOnUse">
<stop stop-color="#1A1E21"/>
<stop offset="1" stop-color="#06060A"/>
</linearGradient>
<linearGradient id="paint1_linear_31_21135" x1="16.8643" y1="11.6016" x2="7.71004" y2="11.6016" gradientUnits="userSpaceOnUse">
<stop stop-color="#012274"/>
<stop offset="0.51" stop-color="#0035B0"/>
<stop offset="1" stop-color="#022372"/>
</linearGradient>
<linearGradient id="paint2_linear_31_21135" x1="11.4385" y1="7.98438" x2="11.4385" y2="15.9387" gradientUnits="userSpaceOnUse">
<stop stop-color="#5183E2"/>
<stop offset="1" stop-color="#1150B9"/>
</linearGradient>
<linearGradient id="paint3_linear_31_21135" x1="17.0572" y1="10.1614" x2="7.49145" y2="13.0756" gradientUnits="userSpaceOnUse">
<stop stop-color="#B29F59"/>
<stop offset="0.54" stop-color="#FFFFB0"/>
<stop offset="1" stop-color="#A7924D"/>
</linearGradient>
<clipPath id="clip0_31_21135">
<rect width="24" height="24" fill="white"/>
</clipPath>
</defs>
</svg>

<svg xmlns="http://www.w3.org/2000/svg" width="24" height="24" fill="none" viewBox="0 0 24 24"><g clip-path="url(#a)"><path fill="url(#b)" d="M0 0h24v24H0z"/><path fill="url(#c)" d="M16.864 8.383 12.22 6.197 7.28 8.383l-.308.549.206 1.928.527 3.017 1.615 2.73 2.692 1.8 2.079-1.298 1.787-2.435.985-3.497z"/><path fill="url(#d)" d="m12.261 11.07-1.5-3.086H7.834c.845 1.415 2.537 4.256 2.55 4.265.013.012.005 1.971 0 2.944l-.3.664h3.377l-.604-.835v-2.58l2.186-4.39H12.78l.407.927z"/><path fill="url(#e)" fill-rule="evenodd" d="M11.974 20.143C5.893 17.82 5.306 10.586 5.65 7.286l6.39-3 6.342 3c.515 8.301-3.535 11.957-6.407 12.857m0-.789c-5.473-2.091-6-8.605-5.695-11.575l5.755-2.7 5.713 2.7c.463 7.474-3.184 10.76-5.773 11.57zM6.801 8.13c-.278 2.734.202 8.734 5.178 10.658 2.352-.75 5.665-3.775 5.245-10.658l-5.19-2.486L6.806 8.13zm.66.51c-.154 1.526-.042 4.217 1.192 6.403l.686-.626.514 1.174.433-.501v-2.661a119 119 0 0 0-1.573-2.713 43 43 0 0 1-.48-.827 2.3 2.3 0 0 0-.394-.43zm4.518 9.33a6.3 6.3 0 0 1-1.805-1.072v-.407l.215.223h3.651c-.686.643-1.414 1.046-2.057 1.256zm4.581-9.33c.176 2.884-.394 4.993-1.264 6.484l-.827-.163-.455 1.097-.3-.428V12.92l2.057-4.182-.411-.678zm-4.53-2.182.15.073L12 6.49l-.064.017.094-.043zm2.606 1.256L12.75 6.81l-.75.557c-.163-.163-.51-.411-.72-.548l-1.881.895h1.632l.815.772.574 1.255c.15-.265.386-.758.407-.96.017-.158-.266-.441-.493-.634a.25.25 0 0 1-.073-.291.25.25 0 0 1 .219-.142zm-6.596.429h2.811l.729.574.887 1.894.746-1.577c.043-.231.047-.707-.257-.891h2.053l.437.574-2.16 4.157v2.915l.394.497h-3.154l-.369-.339.557-.626v-3L8.713 8.837a1.65 1.65 0 0 0-.673-.694" clip-rule="evenodd"/><path fill="#9DE6E0" d="M12 6.93a.441.441 0 1 0 0-.883.441.441 0 0 0 0 .883M14.661 16.401a.441.441 0 1 0 0-.882.441.441 0 0 0 0 .882M9.339 16.401a.441.441 0 1 0 0-.882.441.441 0 0 0 0 .882"/></g><defs><linearGradient id="b" x1="4.466" x2="29.207" y1="4.161" y2="32.58" gradientUnits="userSpaceOnUse"><stop stop-color="#1A1E21"/><stop offset="1" stop-color="#06060A"/></linearGradient><linearGradient id="c" x1="16.864" x2="7.71" y1="11.602" y2="11.602" gradientUnits="userSpaceOnUse"><stop stop-color="#012274"/><stop offset=".51" stop-color="#0035B0"/><stop offset="1" stop-color="#022372"/></linearGradient><linearGradient id="d" x1="11.438" x2="11.438" y1="7.984" y2="15.939" gradientUnits="userSpaceOnUse"><stop stop-color="#5183E2"/><stop offset="1" stop-color="#1150B9"/></linearGradient><linearGradient id="e" x1="17.057" x2="7.491" y1="10.161" y2="13.076" gradientUnits="userSpaceOnUse"><stop stop-color="#B29F59"/><stop offset=".54" stop-color="#FFFFB0"/><stop offset="1" stop-color="#A7924D"/></linearGradient><clipPath id="a"><path fill="#fff" d="M0 0h24v24H0z"/></clipPath></defs></svg>
